X:49
T:Plains of Boyle
Z: id:dc-hornpipe-44
M:C|
L:1/8
K:D Mixolydian
FG|AFDE FEDF|(3ABA GB AFDe|fedf ed^ce|d^cAB cAFG|!
AFDE FEDF|(3ABA GB AFDe|fedB c2AG|F2D2 D2:|!
fg|afdf gefe|dfed BAFG|A2FA BAFA|A2FA BAfg|!
afdf gefe|dfed BAFG|A2FA dBAG|F2D2 D2:|!

